X:1
T:Molti Animai selvaggi
T:Luca Marenzio
T:Source : Il quinto libro delle Villanelle a tre voci---Venetia---Herede di G.Scotto---1587. Editor : André Vierendeels (08/05/17). 
T:Notes : Original clefs : G2, C1, F3 Editorial accidentals above the staff Music collected by Attilio Gualtieri 
T:Molti Animai selvaggi
T:©
T:©
C:Luca Marenzio
Z:©
%%score [ 1 2 3 ]
L:1/8
Q:1/4=120
M:4/4
K:F
V:1 treble nm="Soprano 1" snm="S 1"
V:2 treble nm="Soprano 2" snm="S 2"
V:3 bass nm="Bass" snm="B"
V:1
"^1)" G4 B4- | B2 A2 B2 c2 | d4 A4 | B2 Bc d2 c2 | B3 c _e2 d2 | c8 | B8 :: d2 e2 f4 | g2 f2 e4 | %9
w: Mol- ti'A-|* ni- mai sel-|vag- gi,|fug- gon del Sol i|sfa- vil- lan- ti|rag-|gi,|et io bra-|mo'a tutt' ho-|
w: E mol-|* ti poi la|not- te,|es- co- no fuor da|ca- ver- no- se|grot-|te,|e fug- gen-|do'io mi gie-|
 d4 z2 d2 | g6 f2 | _e2 d2 c2 B2 | A2 G2 A4 | G8 :| %14
w: re, mi-|rar quel|sol che mi con-|su- m'il co-|re.|
w: lo, quan-|do veg-|gio'ap- pa- rir le|stel- le'in cie-|lo.|
V:2
"^2)""^1)" D4 D4- | D2 D2 D2 G2 | ^F4 F4 | G2 GE D2 E2 | G3 A G2 B2- | B2 AG A4 | B8 :: F2 c2 d4 | %8
w: Mol- ti'A-|* ni mai sel-|vag- gi,|fug- gon del Sol i|sfa- vil- lan- ti|_ _ _ rag-|gi,|et io bra-|
w: E gli'Au-|* gel- li vo-|lan- do,|chi la not- t'e ch'il|di van gor- gheg-|* * * gian-|do,|et io che|
 B2 d2 ^c4 | d2 A2 B4- | B4 B4 | c2 B2 A2 G2 | ^F2 G4 F2 | G8 :| %14
w: mo'a tutt' ho-|re, mi- rar|_ quel|sol che mi con-|su- m'il co-|re.|
w: pian- go sem-|pre, di'e nott'|_ e|vi- vo'in do- lo-|ro- se tem-|pre.|
V:3
"^3)""^1)""^4)" G,4 G,4- | G,2 ^F,2 G,2 _E,2 | D,4 D,4 | G,2 G,A, B,2 A,2 | G,3 F, _E,2 B,,2 | %5
w: Mol- ti'A-|* ni mai sel-|vag- gi,|fug- gon del Sol i|sfa- vil- lan- ti|
w: Co- si|_ tal- hor mi|sfac- cio,|tal' hor con mil- le|guai ri- torn' _|
 F,8 | B,,8 :: B,2 A,2 B,4 | G,2 D,2 A,4 | D,2 D,2 G,4- | G,2 F,2 _E,2 D,2 | C,4 C,4 | %12
w: rag-|gi,|et io bra-|mo'a tutt' ho-|re, mi- rar|_ quel sol che|mi con-|
w: giac|cio.|E tu bel-|tà'i- mor- ta-|le, non por-|* gi'al- cun ri-|me- dio'al|
 D,2 _E,2 D,4 | G,8 :| %14
w: su- m'il co-|re.|
w: mio gran ma-|le.|

